X: 27538
T: Monaghan Twig, The
R: reel
M: 4/4
K: Amixolydian
|:cAAB cded|cAAG E3B|cAAB cded|=cAG=c d2ed:|
cdef gfed|(3Bcd ef e3d|cdef g3e|dBGB d2ed|
cded cded|cAAG E3B|cded cded|BAGB d2ed||

